!!!!SEGMENT: pl-cz--iii-332--001-005_just-franciszek-kasper--dixit-dominus-juravit-dominus.krn
!!!cenid: 17xx:910
!!!COM: Just, Franciszek Kasper
!!!COM-rismID: pe30098311
!!!CDT: 1717-1760
!!!CNT: Czech
!!!OPR: Dixit Dominus
!!!OTL: Juravit Dominus
!!!OMV: 005
!!!PDT:
!!!AGN: Sacred
!!!YEC: Copyright 2022 Narodowy Instytut Fryderyka Chopina (https://polishscores.org)
!!!YEM: License CC-BY-4.0 (https://creativecommons.org/licenses/by/4.0)
!!!SMS-siglum: PL-CZ
!!!SMS-shelfmark: III-332
!!!SMS-shelfwork: 001-005 M
!!!SMS-variant:
!!!SMS-altvar:
!!!NIFC-rismSourceID: 300000542
!!!NIFC-rismChildID: 300000542
!!!NIFC-islandoraID: pl-cz:37699
!!!URL-pdf-islandora: https://repozytorium.nifc.pl/islandora/object/pl-cz%3A37699/datastream/PDF/view
!!!URL-scan: https://polish.musicsources.pl/pl/lokalizacje/galeria/rekopisy/6905/1 @EN{Scan on Polish Music Sources Website} @PL{Skany w portalu Dziedzictwo Muzyki Polskiej w otwartym dostępie}
!!!IIIF:
!!!ONB-nifc: UWAGA: części Dixit Dominus: Dixit Dominus, Virgam virtutis tuae, Dominare in medio, Tecum principium, Juravit Dominus, Tu es sacerdos, Dominus a dextris, Judicabit in nationibus, De torrente, Gloria patri
!!!AIN: 1 alto 2 bass 1 cbass 2 clrno 1 oboe 1 soprn 1 tenor 2 violn
!!!key: D
**kern	**fb	**kern	**kern	**kern	**kern	**text	**kern	**text	**kern	**text	**kern	**dynam	**text	**kern	**kern	**kern
*group	*	*group3	*group3	*group2	*group2	*	*group2	*	*group2	*	*group2	*	*	*group1	*group1	*group
*part11	*	*part10	*part9	*part8	*part7	*	*part6	*	*part5	*	*part4	*	*	*part3	*part2	*part1
*staff11	*	*staff10	*staff9	*staff8	*staff7	*	*staff6	*	*staff5	*	*staff4	*	*	*staff3	*staff2	*staff1
*I"Fundamento.	*	*I"Violino Secundo.	*I"Violino Primo.	*I"Basso Secundo.	*I"Baſso.	*	*I"Tenore	*	*I"Alto.	*	*I"Canto.	*	*	*I"Clarino 2do.	*I"Clarino Primo ex D.	*I"Oboa Solo
*I'fund	*	*I'vl 2	*I'vl 1	*I'B 2	*I'B 1	*	*I'T	*	*I'A	*	*I'S	*	*	*I'clno 2	*I'clno 1	*I'ob
*Icbass	*	*Ivioln	*Ivioln	*Ibass	*Ibass	*	*Itenor	*	*Ialto	*	*Isoprn	*	*	*Iclrno	*Iclrno	*Ioboe
*IC	*	*ICstr	*ICstr	*ICvox	*ICvox	*	*ICvox	*	*ICvox	*	*ICvox	*	*	*ICbras	*ICbras	*ICww
*clefF4	*	*clefG2	*clefG2	*clefF4	*clefF4	*	*clefC4	*	*clefC3	*	*clefC1	*	*	*clefG2	*clefG2	*clefG2
*	*	*	*	*	*	*	*	*	*	*	*	*	*	*ITrd-1c-2	*ITrd-1c-2	*
*k[f#c#]	*	*k[f#c#]	*k[f#c#]	*k[f#c#]	*k[f#c#]	*	*k[f#c#]	*	*k[f#c#]	*	*k[f#c#]	*	*	*k[f#c#]	*k[f#c#]	*k[f#c#]
*D:	*	*D:	*D:	*D:	*D:	*	*D:	*	*D:	*	*D:	*	*	*D:	*D:	*D:
*M4/4	*	*M4/4	*M4/4	*M4/4	*M4/4	*	*M4/4	*	*M4/4	*	*M4/4	*	*	*M4/4	*M4/4	*M4/4
*met(c)	*	*met(c)	*met(c)	*met(c)	*met(c)	*	*met(c)	*	*met(c)	*	*met(c)	*	*	*met(c)	*met(c)	*met(c)
=1	=1	=1	=1	=1	=1	=1	=1	=1	=1	=1	=1	=1	=1	=1	=1	=1
*	*above	*	*	*	*	*	*	*	*	*	*	*	*	*	*	*
!LO:TX:a:i:t=Solo Baſs.	!	!	!LO:TX:a:i:t=S.:rj	!	!	!	!	!	!	!	!LO:TX:a:t=4.	!	!	!	!	!
!	!	!	!	!	!	!	!	!	!	!	!LO:TX:a:t=P:problem=wysokość i kolejność znaków przykluczowych - cc# f#	!	!	!	!	!
!LO:TX:b:i:t=Juravit	!	!LO:TX:b:i:t=Juravit	!LO:TX:b:i:t=Juravit	!	!	!	!LO:TX:b:i:t=Juravit	!	!LO:TX:b:i:t=Juravit	!	!LO:TX:b:i:t=Juravit	!	!	!LO:TX:b:i:t=Juravit	!LO:TX:b:i:t=Juravit	!
4D/	.	4ff# 4a 4d/	4ff# 4a 4d/	1ryy	4r	.	00r	.	00r	.	00r	.	.	00r	00r	1ryy
!	!	!	!	!	!LO:TX:a:i:t=Solo	!	!	!	!	!	!	!	!	!	!	!
4r	.	4r	4r	.	8r	.	.	.	.	.	.	.	.	.	.	.
.	.	.	.	.	8A\	Ju-	.	.	.	.	.	.	.	.	.	.
2r	.	2r	2r	.	4d\	-ra-	.	.	.	.	.	.	.	.	.	.
.	.	.	.	.	4D/	-vit	.	.	.	.	.	.	.	.	.	.
=2	=2	=2	=2	=2	=2	=2	=2	=2	=2	=2	=2	=2	=2	=2	=2	=2
8D/L	.	8ff#L 8a 8d/	8ff#L 8a 8d/	1ryy	2r	.	.	.	.	.	.	.	.	.	.	1ryy
16D/L	.	16ff#L 16a 16d/	16ff#L 16a 16d/	.	.	.	.	.	.	.	.	.	.	.	.	.
16D/JJ	.	16ff#JJ 16a 16d/	16ff#JJ 16a 16d/	.	.	.	.	.	.	.	.	.	.	.	.	.
8D/L	.	8ff#L 8a 8d/	8ff#L 8a 8d/	.	.	.	.	.	.	.	.	.	.	.	.	.
8D/J	.	8ff#J 8a 8d/	8ff#J 8a 8d/	.	.	.	.	.	.	.	.	.	.	.	.	.
2D/	.	2ff# 2a 2d/	2ff# 2a 2d/	.	8r	.	.	.	.	.	.	.	.	.	.	.
.	.	.	.	.	8d\	Ju-	.	.	.	.	.	.	.	.	.	.
.	.	.	.	.	8A\	-ra-	.	.	.	.	.	.	.	.	.	.
.	.	.	.	.	8F#\	-vit	.	.	.	.	.	.	.	.	.	.
=3	=3	=3	=3	=3	=3	=3	=3	=3	=3	=3	=3	=3	=3	=3	=3	=3
*2\right	*	*2\right	*2\right	*	*	*	*	*	*	*	*	*	*	*	*	*
2G#X\	.	2b\	2ee\	1ryy	8.E\	Do-	.	.	.	.	.	.	.	.	.	1ryy
.	.	.	.	.	16E\	-mi-	.	.	.	.	.	.	.	.	.	.
.	.	.	.	.	8F#\	-nus	.	.	.	.	.	.	.	.	.	.
.	.	.	.	.	8G#X\	ju-	.	.	.	.	.	.	.	.	.	.
2A\	.	2cc#\	2ee\	.	4A\	-ra-	.	.	.	.	.	.	.	.	.	.
.	.	.	.	.	4AA/	-vit	.	.	.	.	.	.	.	.	.	.
=4	=4	=4	=4	=4	=4	=4	=4	=4	=4	=4	=4	=4	=4	=4	=4	=4
*	*	*^	*^	*	*	*	*	*	*	*	*	*	*	*	*	*
!	!	!	!	!	!	!	!LO:TX:a:t=1	!	!	!	!	!	!	!	!	!	!	!
8AA/L	.	8eeL 8cc#/	8a\L	8eeL 8cc#/	8a\L	1ryy	1r	.	.	.	.	.	.	.	.	.	.	1ryy
16AA/L	.	16eeL 16cc#/	16a\L	16eeL 16cc#/	16a\L	.	.	.	.	.	.	.	.	.	.	.	.	.
16AA/JJ	.	16eeJJ 16cc#/	16a\JJ	16eeJJ 16cc#/	16a\JJ	.	.	.	.	.	.	.	.	.	.	.	.	.
16AA/LL	.	8eeL 8cc#/	8a\L	16eeLL 16cc#/	16a\LL	.	.	.	.	.	.	.	.	.	.	.	.	.
16AA/	.	.	.	16ee 16cc#/	16a\	.	.	.	.	.	.	.	.	.	.	.	.	.
16AA/	.	8eeJ 8cc#/	8a\J	16ee 16cc#/	16a\	.	.	.	.	.	.	.	.	.	.	.	.	.
16AA/JJ	.	.	.	16eeJJ 16cc#/	16a\JJ	.	.	.	.	.	.	.	.	.	.	.	.	.
4AA/	.	4ee 4cc#/	4a\	4ee 4cc#/	4a\	.	.	.	.	.	.	.	.	.	.	.	.	.
4r	.	4r	4r	4r	4ryy	.	.	.	.	.	.	.	.	.	.	.	.	.
*	*	*v	*v	*	*	*	*	*	*	*	*	*	*	*	*	*	*	*
*	*	*	*v	*v	*	*	*	*	*	*	*	*	*	*	*	*	*
=5||	=5	=5||	=5||	=5	=5||	=5	=5||	=5	=5||	=5	=5||	=5	=5	=5||	=5||	=5
*M3/4	*	*M3/4	*M3/4	*	*M3/4	*	*M3/4	*	*M3/4	*	*M3/4	*	*	*M3/4	*M3/4	*
!LO:TX:a:i:t=T.:rj	!	!LO:TX:b:t=Et n(on) paenitebit	!LO:TX:a:i:t=T.:rj	!	!LO:TX:a:t=T.	!	!	!	!	!	!	!	!	!LO:TX:a:i:t=Presto	!LO:TX:a:i:t=T.	!
!	!	!	!	!	!	!	!	!	!	!	!	!LO:DY:a:t=f.:rj	!	!LO:TX:b:i:t=Et non paenitebit	!LO:TX:b:i:t=Et non paenitebit	!
8D\L	.	16dd\LL	16dd\LL	2.ryy	8d\	Et	8d\	Et	8a\	Et	8ff#\	f	Et	8dd\L	8ff#\L	2.ryy
.	.	16ddd\	16ddd\	.	.	.	.	.	.	.	.	.	.	.	.	.
8D\	.	16ccc#\	16ccc#\	.	8D/	n(on)	8d\	non	8a\	non	8ff#\	.	non	8dd\	8ff#\	.
.	.	16bb\JJ	16bb\JJ	.	.	.	.	.	.	.	.	.	.	.	.	.
8F#\	X 6	16aa\LL	16aa\LL	.	8F#\	pae-	8d\	pae-	8a\	pae-	8ff#\	.	pae-	8dd\	8ff#\	.
.	.	16bb\	16bb\	.	.	.	.	.	.	.	.	.	.	.	.	.
8D\	.	16aa\	16aa\	.	8D/	-ni-	8d\	-ni-	8a\	-ni-	8ff#\	.	-ni-	8dd\J	8ff#\	.
.	.	16gg\JJ	16gg\JJ	.	.	.	.	.	.	.	.	.	.	.	.	.
8F#\	.	16ff#\LL	16ff#\LL	.	8F#\	-te-	8c#\	-te-	8a\	-te-	8ee\	.	-te-	8a/L	8gg\	.
.	.	16gg\	16gg\	.	.	.	.	.	.	.	.	.	.	.	.	.
8A\J	.	16ff#\	16ff#\	.	8A\	-bit	8c#\	-bit	8a\	-bit	8ee\	.	-bit	8a/J	8ee\J	.
.	.	16ee\JJ	16ee\JJ	.	.	.	.	.	.	.	.	.	.	.	.	.
=6	=6	=6	=6	=6	=6	=6	=6	=6	=6	=6	=6	=6	=6	=6	=6	=6
!LO:TX:a:t=P:problem=mixed beam	!	!	!	!	!	!	!	!	!	!	!	!	!	!	!	!
8d\L	.	8dd\L	8dd\L	2.ryy	8d\	e-	8d\	e-	8a\	e-	8ff#\	.	e-	8dd\L	8ff#\L	2.ryy
8D/J	.	8ff#\J	8ff#\J	.	8D/	-um	8d\	-um	8a\	-um	8ff#\	.	-um	8dd\J	8ff#\J	.
8F#\L	.	16ee\LL	16aa\LL	.	8r	.	8r	.	8r	.	8r	.	.	8r	8r	.
.	.	16a\	16a\	.	.	.	.	.	.	.	.	.	.	.	.	.
8d\	.	16ee\	16aa\	.	8d\	n(on)	8f#\	n(on)	8a\	n(on)	8ff#\	.	non	8dd\L	8ff#\L	.
.	.	16a\JJ	16a\JJ	.	.	.	.	.	.	.	.	.	.	.	.	.
8e\	.	16ee\LL	16aa\LL	.	8e\	non	8e\	non	8a\	non	8gg\	.	n(on)	8ee\	8gg\	.
.	.	16a\	16a\	.	.	.	.	.	.	.	.	.	.	.	.	.
*	*	*	*	*	*custos:d	*	*	*	*	*	*	*	*	*	*	*
8A\J	.	16ee\	16aa\	.	8A\	n(on)	8c#\	n(on)	8a\	n(on)	8ee\	.	non	8a\J	8ee\J	.
.	.	16a\JJ	16a\JJ	.	.	.	.	.	.	.	.	.	.	.	.	.
!LO:LB:g=original	!	!	!	!	!LO:LB:g=original	!	!	!	!	!	!	!	!	!	!	!
=7	=7	=7	=7	=7	=7	=7	=7	=7	=7	=7	=7	=7	=7	=7	=7	=7
!LO:TX:a:t=P:problem=mixed beam	!	!	!LO:TX:a:t=P:problem=mixed beam	!	!	!	!	!	!	!	!	!	!	!	!	!
8d\L	.	16ee\LL	16aa\LL	2.ryy	4d\	non	4d\	non	4a\	non	4ff#\	.	n(on)	4dd\	4ff#\	2.ryy
.	.	16a\	16a/	.	.	.	.	.	.	.	.	.	.	.	.	.
8D/J	.	16ee\	16aa\	.	.	.	.	.	.	.	.	.	.	.	.	.
.	.	16a\JJ	16a/JJ	.	.	.	.	.	.	.	.	.	.	.	.	.
8r	.	16ee\LL	16ff#\LL	.	8r	.	8r	.	8r	.	8r	.	.	8r	8r	.
.	.	16a\	16dd\	.	.	.	.	.	.	.	.	.	.	.	.	.
8D\L	.	16ee\	16ff#\	.	8D\	n(on)	8d\	n(on)	8f#\	n(on)	8dd\	.	non	8dd\L	8dd\L	.
.	.	16a\JJ	16dd\JJ	.	.	.	.	.	.	.	.	.	.	.	.	.
8F#\	X 6	16dd\LL	16ff#\LL	.	8F#\	pae-	8d\	pae-	8a\	pae-	8dd\	.	pae-	8dd\	8dd\	.
.	.	16ee\	16gg\	.	.	.	.	.	.	.	.	.	.	.	.	.
*	*	*	*	*	*	*	*	*	*	*	*custos:dd	*	*	*	*	*
8D\J	.	16ff#\	16aa\	.	8D\	-ni-	8d\	-ni-	8f#\	-ni-	8dd\	.	-ni-	8dd\J	8dd\J	.
.	.	16dd\JJ	16ff#\JJ	.	.	.	.	.	.	.	.	.	.	.	.	.
!	!	!LO:LB:g=original	!LO:LB:g=original	!	!	!	!	!	!	!	!LO:LB:g=original	!	!	!	!	!
=8	=8	=8	=8	=8	=8	=8	=8	=8	=8	=8	=8	=8	=8	=8	=8	=8
!LO:TX:a:t=P:problem=mixed beam	!	!	!	!	!	!	!	!	!	!	!	!	!	!	!	!
8A\L	.	16gg\LL	16gg\LL	2.ryy	8G\	-te-	8B\	-te-	8g\	-te-	8dd\	.	-te-	8dd\L	8dd\L	2.ryy
.	.	16dd\	16dd\	.	.	.	.	.	.	.	.	.	.	.	.	.
8AA/J	.	16b\	16b\	.	8GG/	-bit	8B\	-bit	8g\	-bit	8dd\	.	-bit	8dd\J	8dd\J	.
.	.	16g\JJ	16g\JJ	.	.	.	.	.	.	.	.	.	.	.	.	.
!	!	!	!	!	!	!	!	!	!LO:LB:g=original	!	!	!	!	!	!	!
8r	.	8ee\L	8gg#X\L	.	8r	.	8r	.	8r	.	8r	.	.	8r	8r	.
8E\L	X #	16ee\L	16ee\L	.	8G#X\	non	8B\	n(on)	8g#X\	n(on)	8ee\	.	n(on)	8ee\L	8ee\L	.
.	.	16dd\JJ	16ff#\JJ	.	.	.	.	.	.	.	.	.	.	.	.	.
8G#X\	X 6	16ee\LL	16gg#X\LL	.	8G#\	pae-	8B\	pae-	8b\	pae-	8ee\	.	pae-	8ee\	8ee\	.
.	.	16ff#\	16aa\	.	.	.	.	.	.	.	.	.	.	.	.	.
8E\J	.	16gg#X\	16bb\	.	8G#\	-ni-	8B\	-ni-	8g#\	-ni-	8ee\	.	-ni-	8ee\J	8ee\J	.
.	.	16ee\JJ	16gg#\JJ	.	.	.	.	.	.	.	.	.	.	.	.	.
=9	=9	=9	=9	=9	=9	=9	=9	=9	=9	=9	=9	=9	=9	=9	=9	=9
!LO:TX:a:t=P:problem=mixed beam	!	!	!	!	!	!	!	!	!	!	!	!	!	!	!	!
8A\L	.	16aa\LL	16aa\LL	2.ryy	8A\	-te-	8c#\	-te-	8a\	-te-	8ee\	.	-te-	8a/L	8ee\L	2.ryy
.	.	16ee\	16ee\	.	.	.	.	.	.	.	.	.	.	.	.	.
8AA/J	.	16cc#\	16cc#\	.	8AA/	-bit	8c#\	-bit	8a\	-bit	8ee\	.	-bit	8a/J	8ee\J	.
.	.	16a\JJ	16a\JJ	.	.	.	.	.	.	.	.	.	.	.	.	.
!	!	!	!	!	!	!	!LO:LB:g=original	!	!	!	!	!	!	!	!	!
!	!	!LO:TX:a:t=P:problem=mixed beam	!LO:TX:a:t=P:problem=mixed beam	!	!	!	!	!	!	!	!	!	!	!	!	!
!	!	!	!	!	!	!	!	!	!	!	!	!	!	!	!LO:LB:g=original	!
8r	.	16aa\LL	16aa\LL	.	8r	.	8r	.	8r	.	8r	.	.	8r	8r	.
.	.	16a/	16a/	.	.	.	.	.	.	.	.	.	.	.	.	.
8A\L	.	16aa\	16aa\	.	8A\	n(on)	8c#\	n(on)	8a\	n(on)	8ee\	.	n(on)	8a\L	8ee\L	.
.	.	16a/JJ	16a/JJ	.	.	.	.	.	.	.	.	.	.	.	.	.
!	!	!LO:TX:a:t=P:problem=mixed beam	!LO:TX:a:t=P:problem=mixed beam	!	!	!	!	!	!	!	!	!	!	!	!	!
8A\	.	16aa\LL	16aa\LL	.	8d\	non	8c#\	non	8a\	non	8ff#\	.	non	8dd\	8ff#\	.
.	.	16a/	16a/	.	.	.	.	.	.	.	.	.	.	.	.	.
8A\J	.	16aa\	16aa\	.	8A\	non	8c#\	n(on)	8a\	n(on)	8ee\	.	n(on)	8a\J	8ee\J	.
.	.	16a/JJ	16a/JJ	.	.	.	.	.	.	.	.	.	.	.	.	.
=10	=10	=10	=10	=10	=10	=10	=10	=10	=10	=10	=10	=10	=10	=10	=10	=10
!	!	!LO:TX:a:t=P:problem=mixed beamam	!LO:TX:a:t=P:problem=mixed beam	!	!	!	!	!	!	!	!	!	!	!	!	!
8d\L	.	16aa\LL	16aa\LL	2.ryy	8d\	n(on)	8d\	n(on)	8a\	non	8ff#\	.	n(on)	8dd\L	8ff#\L	2.ryy
.	.	16a/	16a/	.	.	.	.	.	.	.	.	.	.	.	.	.
8A\	.	16aa\	16aa\	.	8A\	non	8c#\	non	8a\	n(on)	8ee\	.	non	8a\	8ee\	.
.	.	16a/JJ	16a/JJ	.	.	.	.	.	.	.	.	.	.	.	.	.
!	!	!LO:TX:a:t=P:problem=mixed beam	!LO:TX:a:t=P:problem=mixed beam	!	!	!	!	!	!	!	!	!	!	!	!	!
8d\	.	16aa\LL	16aa\LL	.	8d\	n(on)	8d\	n(on)	8a\	non	8ff#\	.	n(on)	8dd\	8ff#\	.
.	.	16a/	16a/	.	.	.	.	.	.	.	.	.	.	.	.	.
8A\	.	16aa\	16aa\	.	8A\	n(on)	8c#\	non	8a\	n(on)	8ee\	.	non	8a\	8ee\	.
.	.	16a/JJ	16a/JJ	.	.	.	.	.	.	.	.	.	.	.	.	.
!	!	!LO:TX:a:t=P:problem=mixed beam	!LO:TX:a:t=P:problem=mixed beam	!	!	!	!	!	!	!	!	!	!	!	!	!
8d\	.	16aa\LL	16aa\LL	.	8d\	pae-	8d\	pae-	8a\	pae-	8ff#\	.	pae-	8dd\	8ff#\	.
.	.	16a/	16a/	.	.	.	.	.	.	.	.	.	.	.	.	.
8c#\J	.	16aa\	16aa\	.	8A\	-ni-	8c#\	-ni-	8a\	-ni-	8ee\	.	-ni-	8a\J	8ee\J	.
.	.	16a/JJ	16a/JJ	.	.	.	.	.	.	.	.	.	.	.	.	.
=11	=11	=11	=11	=11	=11	=11	=11	=11	=11	=11	=11	=11	=11	=11	=11	=11
8B\L	X 5	16dd\LL	16dd\LL	2.ryy	8B\	-te-	8B\	-te-	8f#\	-te-	8dd\	.	-te-	8dd\L	8dd\L	2.ryy
.	.	16f#\	16f#\	.	.	.	.	.	.	.	.	.	.	.	.	.
8F#\	.	16cc#\	16cc#\	.	8F#\	-bit	8A#X\	-bit	8f#\	-bit	8cc#\	.	-bit	8ee\	8ee\	.
.	.	16f#\JJ	16f#\JJ	.	.	.	.	.	.	.	.	.	.	.	.	.
8B#X\	.	16dd\LL	16dd\LL	.	8B\	n(on)	8B\	n(on)	8f#\	n(on)	8dd\	.	n(on)	8dd\	8dd\	.
.	.	16f#\	16f#\	.	.	.	.	.	.	.	.	.	.	.	.	.
8F#\	.	16cc#\	16cc#\	.	8F#\	non	8A#\	non	8f#\	non	8cc#\	.	non	8ee\	8ee\	.
.	.	16f#\JJ	16f#\JJ	.	.	.	.	.	.	.	.	.	.	.	.	.
8B#X\	.	16dd\LL	16dd\LL	.	8B\	n(on)	8B\	n(on)	8f#\	n(on)	8dd\	.	n(on)	8dd\	8dd\	.
.	.	16f#\	16f#\	.	.	.	.	.	.	.	.	.	.	.	.	.
8An\J	.	16cc#\	16cc#\	.	8A\	non	8An\	non	8f#\	non	8cc#\	.	non	8a\J	8ee\J	.
.	.	16a\JJ	16a\JJ	.	.	.	.	.	.	.	.	.	.	.	.	.
=12	=12	=12	=12	=12	=12	=12	=12	=12	=12	=12	=12	=12	=12	=12	=12	=12
8G\L	.	8b\L	8b\L	2.ryy	8G\	pae-	8G/	pae-	8d\	pae-	8b\	.	pae-	8dd\L	8dd\L	2.ryy
8F#\	.	8cc#\	8cc#\	.	8F#\	-ni-	8A/	-ni-	8a\	-ni-	8cc#\	.	-ni-	8a\J	8ee\	.
!	!	!	!	!	!	!	!	!	!	!	!	!	!	!LO:TX:a:t=P:problem=mixed beam	!	!
8E\	.	8dd\	8dd\	.	8E\	-te-	8B\	-te-	8b\	-te-	8dd\	.	-te-	8f#/L	8ff#\	.
8D\J	.	8ee\J	8gg\J	.	8D\	-bit	8d\	-bit	8a\	-bit	8ee\	.	-bit	8dd\J	8gg\J	.
!LO:TX:a:t=P:problem=mixed beam	!	!	!	!	!LO:TX:a:t=P:problem=mixed beam	!	!	!	!	!	!	!	!	!	!	!
8A\L	.	8a\L	8ee\L	.	8A\L	e-	4c#\	e-	4a\	e-	4ee\	.	e-	4ee\	4aa\	.
*	*	*	*	*	*custos:D	*	*	*	*	*	*	*	*	*	*	*
8AA/J	.	8ee\J	8ccc#\J	.	8AA/J	.	.	.	.	.	.	.	.	.	.	.
!	!	!	!	!	!LO:LB:g=original	!	!	!	!	!	!	!	!	!LO:LB:g=original	!	!
=13	=13	=13	=13	=13	=13	=13	=13	=13	=13	=13	=13	=13	=13	=13	=13	=13
*	*	*	*	*	*	*	*	*	*	*	*	*	*custos:ff	*	*	*
4D\	.	8ff#L 8a 8d/	16ddd\LL	2.ryy	4D/	-um	4d\	-um	4a\	-um	4ff#\	.	-um	4ff#\	4aa\	2.ryy
.	.	.	16dd\	.	.	.	.	.	.	.	.	.	.	.	.	.
.	.	16ff#L 16a 16d/	16ddd\	.	.	.	.	.	.	.	.	.	.	.	.	.
.	.	16ff#JJ 16a 16d/	16dd\JJ	.	.	.	.	.	.	.	.	.	.	.	.	.
!	!	!	!	!	!	!	!	!	!	!	!	!	!LO:LB:g=original	!	!	!
8r	.	8ff#L 8a 8d/	16ddd\LL	.	8r	.	8r	.	8r	.	8r	.	.	8r	8r	.
.	.	.	16dd\	.	.	.	.	.	.	.	.	.	.	.	.	.
8D\L	.	8ff# 8a 8d/	16ddd\	.	8D/	non	8d\	non	8a\	n(on)	8ff#\	.	non	8ff#\L	8aa\L	.
.	.	.	16dd\JJ	.	.	.	.	.	.	.	.	.	.	.	.	.
8F#\	.	8ff# 8a 8d/	16ddd\LL	.	8F#\	pae-	8d\	pae-	8a\	pae-	8ff#\	.	pae-	8ff#\	8aa\	.
.	.	.	16dd\	.	.	.	.	.	.	.	.	.	.	.	.	.
8A\J	6 4	8ff#J 8a 8d/	16ddd\	.	8A\	-ni-	8d\	-ni-	8a\	-ni-	8ff#\	.	-ni-	8ff#\J	8aa\J	.
.	.	.	16dd\JJ	.	.	.	.	.	.	.	.	.	.	.	.	.
!LO:LB:g=original	!	!	!	!	!	!	!	!LO:LB:g=original	!	!LO:LB:g=original	!	!	!	!	!	!
=14	=14	=14	=14	=14	=14	=14	=14	=14	=14	=14	=14	=14	=14	=14	=14	=14
!LO:TX:a:t=P:problem=mixed beam	!	!	!	!	!	!	!	!	!	!	!	!	!	!	!	!
!	!	!	!LO:TX:a:t=P:problem=ten takt zapisany jako repetycja taktu 13	!	!	!	!	!	!	!	!	!	!	!	!	!
8d\L	.	8ff#L 8a 8d/	16ddd\LLyy	2.ryy	8d\	-te-	8d\	-te-	8a\	-te-	8ff#\	.	-te-	8ff#\L	8aa\L	2.ryy
.	.	.	16dd\yy	.	.	.	.	.	.	.	.	.	.	.	.	.
8D/	.	16ff#L 16a 16d/	16ddd\yy	.	8D/	-bit	8d\	-bit	8a\	-bit	8ff#\	.	-bit	8dd\J	8ff#\J	.
.	.	16ff#JJ 16a 16d/	16dd\JJyy	.	.	.	.	.	.	.	.	.	.	.	.	.
8D/	.	8ff#L 8a 8d/	16ddd\LLyy	.	8r	.	8r	.	8r	.	8r	.	.	8r	8r	.
.	.	.	16dd\yy	.	.	.	.	.	.	.	.	.	.	.	.	.
8D/	.	8ff# 8a 8d/	16ddd\yy	.	8D/	non	8d\	n(on)	8a\	n(on)	8ff#\	.	n(on)	8dd\L	8aa\L	.
.	.	.	16dd\JJyy	.	.	.	.	.	.	.	.	.	.	.	.	.
8D/	.	8ff# 8a 8d/	16ddd\LLyy	.	8F#\	pae-	8d\	pae-	8a\	pae-	8ff#\	.	pae-	8dd\	8aa\	.
.	.	.	16dd\yy	.	.	.	.	.	.	.	.	.	.	.	.	.
8D/J	.	8ff#J 8a 8d/	16ddd\yy	.	8A\	-ni-	8d\	-ni-	8a\	-ni-	8ff#\	.	-ni-	8ee\J	8aa\J	.
.	.	.	16dd\JJyy	.	.	.	.	.	.	.	.	.	.	.	.	.
!	!	!LO:LB:g=original	!	!	!	!	!	!	!	!	!	!	!	!	!	!
=15	=15	=15	=15	=15	=15	=15	=15	=15	=15	=15	=15	=15	=15	=15	=15	=15
8D\L	.	8ee\L	8ccc#\L	2.ryy	8d\	-te-	8c#\	-te-	8a\	-te-	8ee\	.	-te-	8ff#\L	8aa\L	2.ryy
8G\J	.	8ff#\J	8ddd\J	.	8G\	-bit	8d\	-bit	8b\	-bit	8ff#,\	.	-bit	8ee\J	8gg\J	.
*	*	*	*	*	*	*	*2\right	*	*2\right	*	*2\right	*	*	*	*	*
4A\	6 4	4ff#\	4ccc#\	.	4A\	e-	2c#\	e-	2a\	e-	2ee\	.	e-	4dd\	4aa\	.
4AA/	5 3	4ee\	4ccc#\	.	4AA/	.	.	.	.	.	.	.	.	4ee\	4aa\	.
!	!	!	!LO:LB:g=original	!	!	!	!	!	!	!	!	!	!	!	!	!
=16	=16	=16	=16	=16	=16	=16	=16	=16	=16	=16	=16	=16	=16	=16	=16	=16
*M2/2	*	*M2/2	*M2/2	*	*M2/2	*	*M2/2	*	*M2/2	*	*M2/2	*	*	*M2/2	*M2/2	*
*met(c|)	*	*met(c|)	*met(c|)	*	*met(c|)	*	*met(c|)	*	*met(c|)	*	*met(c|)	*	*	*met(c|)	*met(c|)	*
*	*	*	*	*	*2\right	*	*	*	*	*	*	*	*	*2\right	*2\right	*
!	!	!	!	!	!LO:TX:a:i:t=Allabr. à Capella	!	!	!	!	!	!	!	!	!LO:TX:a:i:t=Allabr.	!	!
!LO:TX:a:i:t=Allabr&colon;	!	!LO:TX:a:i:t=Allabr. a Capella	!LO:TX:a:i:t=Allabr.	!	!	!	!LO:TX:a:i:t=Allabr.	!	!LO:TX:a:i:t=Allabr.	!	!LO:TX:a:i:t=Allabre	!	!	!	!	!
2D\	.	2ff#\	2ddd\	1ryy	2D\	-um	2d\	-um	2a\	-um	2ff#\	.	-um.	2ff#\	2aa\	1ryy
2ryy	.	2ryy	2ryy	.	2ryy	.	2ryy	.	2ryy	.	2ryy	.	.	2ryy	2ryy	.
==	==	==	==	==	==	==	==	==	==	==	==	==	==	==	==	==
*-	*-	*-	*-	*-	*-	*-	*-	*-	*-	*-	*-	*-	*-	*-	*-	*-
!!!system-decoration: [(s1)][(g1)][(g2)][(g3)][(s11)]
!!!ENC: Berenika Jozajtis
!!!END: 2020-08-21
!!!EED: Antoni Szymański
!!!EEV: 2022-03-03
